X:1
T:Nocturne No. 11
T:Nocturne No. 11
T:John Field
C:John Field
%%score { ( 1 3 ) | ( 2 4 ) }
L:1/8
Q:1/4=118
M:12/8
K:Eb
V:1 treble nm="Piano" snm="Pno."
V:3 treble 
V:2 treble 
V:4 treble 
V:1
"^Moderato" z12 |[Q:1/4=128] z12 |[Q:1/4=134] z12[Q:1/4=128] |[Q:1/4=134] z12[Q:1/4=139] | %4
[Q:1/4=144] z2!p! z!<(! b3[Q:1/4=147] b3 b3!<)! |!mf![Q:1/4=150] b6 =a3 b3 | %6
!>(! c'3 b3 e3!>)!!mp! f3 | g3- gab e3 f3 | g3{/a} gfe f3 B2 b |!<(! b6 =a3 b3!<)! | %10
!mf! c'3!>(! b3 e3 f3!>)! |!mp! g3- gag"_dim." f3- fgf |!p! e!mf! e'2-!>(! e'd'c' =ac'b _af>b!>)! | %13
!mp! b6!<(! =a3 b3!<)! |!mf! c'3!>(! b3 e3 f3!>)! |!mp! g3- gab e3 f3 | g3{/a} gfe f3 B2 b | %17
 b6 =a3 b3 |!<(! c'3 b3 e'3!<)!!mf! f'3 |!8va(!!>(! g'3- g'a'g' f'3- f'g'f'!8va)!!>)! | %20
!mp! e'6- e'3{d'f'} e'd'c' |!<(! b3 b6 b3- | b3 b3- b=b!<)!!mf!c'!>(! afd!>)! | %23
!pp! e3- e!<(!f/e/d/e/ [df]3 [=A_g]3!<)! |!p! f12 |!<(! b6 b3 b3 | %26
 b3-!<)! b!mf!a'f'!>(! d'ba gaf!>)! |!pp! e3!<(! ef/e/d/e/ [df]3 [=A_g]3!<)! | %28
!p! [Bf]3[Q:1/4=140] !^!a6 T^f2 e/f/ |[Q:1/4=128]"^poco ralent." g3 c'3 B3 d3 | %30
[Q:1/4=150]"^a tempo"{/e} b6 =a3 b3 |!>(! c'3 b3 e3!>)!!mp! f3 | g3- gab e3 f3 | %33
 g3{/a} gfe f3 B2 b | b6"_cresc." =a3 b3 | _d'3 c'3 _e3 f3 |!mf! g3- gag"_dim." f3- fgf | %37
 e6-!mp! e3!<(!{df} edc!<)! |!f! [Gg]6 [^F^f]3 [Gg]3 | a3 g3 c3 d3 | %40
[Q:1/4=140] e3-"_dim." efe[Q:1/4=130] d3- ded |!mp! c3 e3{c-d} .c!<(!.=B[Q:1/4=150].c .d.e.=e!<)! | %42
!f! [Ff]6 [=E=e]3 [Ff]3 |!>(! [Gg]3 [Ff]3!>)!!p! [GB]3 [=Ac]3 | %44
 =d3- ded"_dim." c3-[Q:1/4=135] cdc | B6-!pp! B3!p![Q:1/4=150] B2 B | B6 =A3 B3 | _c3 B6 B2 B | %48
!<(! e6{fe} d3 e3!<)! |!mf! f12 |!p! [Ff]6!<(! [=E=e]3 [Ff]3!<)! | %51
!mf!!>(! [_G_g]3!>)!!p! [Ff]3 z2 z4 |!<(! [Ff]6 [=E=e]3 [Ff]3!<)! | %53
!mf!!>(! [=G=g]3!>)!!p! [Ff]6- [Ff]3 |!<(! f6{gf} =e3 f3!<)! |!mf! c'3!>(! b3 _e3 f3!>)! | %56
!p!"_dim." g3- gag f3- fgf | e6-!p! edf!<(! edc!<)! |!mp! [Gg]6!<(! ^f3 g3!<)! | %59
!mf!!>(!{/b} a3 g3!>)!!mp! c3 d3 | e3- efe d2!>(! a- ag=B!>)! |!p! c3 e3{cd} .c.=B.c .d.e.=e | %62
 f6!p! _e3!p! d3 |!p!{/f} e3!p! d3!p! dF^F GA=A | B6 c3- cdc | B6- B3!p! B2 B | B6 =A3 B3 | %67
 _c3!pp! B6!mp! b2 b |!>(! b3- b=a_a ag_g gfe!>)! |!p! f6- f b4 =a | _a3- a2 g _g2 (3a/g/f/ g2 a | %71
 _g3!pp! f6!<(! g2 =g!<)! |!p!!>(! b2!>)!!pp! =a _a2 b a2 g _g2 a | _g3 f6 [Ff]3 | %74
!<(! [Ff]6{=gf} [=E=e]3 [Ff]3!<)! |!p!!>(! [cc']3 [Bb]3!>)!!pp! _e3 f3 | g3- gag f3- fgf | %77
 e6 d3 c3 |!<(!{/B} f6{gf} =e3 f3!<)! |!p!!>(! c'3 b3{gb} a3 g2 f!>)! | %80
!pp!!<(! e3 f2!<)!!p! g!>(! a3 d3!>)! |!pp! e6- e3 e2 d | c3 c3 c3 !invertedturn!d2- d/e/ | %83
 e3 (4:6:4B/c/B/=A/ (4:6:4B/c/d/e/ (4:6:4f/g/f/e/ | %84
 a2 f (4:6:4d/e/d/^c/!<(! (4:6:4d/e/f/g/ (4:6:4a/b/=c'/d'/!<)! | %85
!p!!>(! (4:6:4f'/e'/b/g/!>)!!pp! e6 e2 d | c3 c3!<(! c3 !invertedturn!d2 e!<)! | %87
!p!!>(! e3 B3!>)!!pp! c3 !invertedturn!d2 e | e3 B2 =B/c/ (4:6:4B/c/B/c/ (4:6:4B/c/d/e/ | %89
 e6 e3 =B2 ^A | ^G3 G3!<(! G3 !invertedturn!^A2 =B!<)! |!p! =B3!>(! ^F6 _c2 _B | %92
 =A3- A2 A A3 A3!>)! |!pp! B12 |!p! f6!<(!{gf} =e3 f3!<)! |!p!!>(! =a3 b3!>)!!p! =A3 B3 | %96
!<(! f3- f2 g/f/ =e3 f3!<)! |!p!!>(! c'3 b3!>)!!p! =A3 B3 |!<(! f3- f2 g/f/ =e3 f3!<)! | %99
!p! c'3!>(! b3 _e3!>)!!p! f3 |"_dim." g3- gag f3- fgf |!p! e3 z2 z z2 z!p!!8va(! e''d''c'' | %102
 b'3- b'c''b' b3- bc'd' | e'6- e'g'f' e'd'c'!8va)! | b3- bc'b B3- Bcd | e3 z c'b B3- Bcd | %106
 e2 z z _cB z =cB z dB | z eB z _cB z =cB z dB | z eB z[Q:1/4=155]"^un poco accel." =eB z fB z eB | %109
 z fB z[Q:1/4=160]"_cresc." ^fB z gB z a!mp!B |!<(! z =aB z bB z =b_B z!<)!!mf! c'B | %111
[Q:1/4=150]"_dim." z _bB[Q:1/4=130]"_e rallent." z =aB[Q:1/4=110] z _aB[Q:1/4=80] z f!fermata!B | %112
!p![Q:1/4=150]"^a tempo" e6 a3- a2 d | f2 e d2 c =A2 B c2 d |"_dim." e2 f g2 _a =a2 b c'2 d' | %115
[Q:1/4=140]!8va(! e'2 f' g'2 _a'[Q:1/4=130] =a'2 b' c''2[Q:1/4=80]"_perdendosi" d'' | %116
!pp! e''3!8va)! z2 z!pp![Q:1/4=70] e'3 z2 z |!ppp![Q:1/4=60] e6- e3 z2 z | z12 | z12 | z12 | z12 | %122
 z12 | z12 | z12 | z12 | z12 | z12 |] %128
V:2
!p!!ped! B,3 B,3 B,3 B,3!ped-up! |!ped! =B,D_B, =B,D_B, =B,D_B, =B,D_B,!ped-up! | %2
!ped! CEB, CEB, CEB, CEB,!ped-up! |!ped!"^cresc." ^C=EB, CEB,!ped-up!!ped! DFB, DFB,!ped-up! | %4
!ped! _E^FB,!ped-up!!ped! =EGB,!ped-up!!ped! FAB,!ped-up!!ped! ^F=AB,!ped-up! | %5
!p!!ped! GBB, GBB,!ped-up!!ped! ^F=AB,!ped-up!!ped! GBB,!ped-up! | %6
!ped!!>(! _AcB,!ped-up!!ped! GBB,!ped-up!!ped! CEB,!>)!!ped-up!!pp!!ped! DFB,!ped-up! | %7
!ped! EGB,!ped-up!!ped! EGB,!ped-up!!ped! CEB,!ped-up!!ped! DFB,!ped-up! | %8
!ped! EGB,!ped-up!!ped! CEB,!ped-up!!ped! DFB,!ped-up!!ped! DFB,!ped-up! | %9
!ped!!<(! GBB, GBB,!ped-up!!ped! ^F=AB,!ped-up!!ped! GBB,!<)!!ped-up! | %10
!p!!ped! _AcB,!ped-up!!ped!!>(! GBB,!ped-up!!ped! CEB,!ped-up!!ped! DFB,!>)!!ped-up! | %11
!pp!!ped! EGB, EGB,!ped-up!!ped! C=AB,!ped-up!!ped! D_AB,!ped-up! | %12
!ped! EGB,!ped-up!!ped! ^F=AB,!ped-up!!ped! GBB,!ped-up!!ped! =F_AB,!ped-up! | %13
!ped!!<(! GBB, GBB,!ped-up!!ped! ^F=AB,!ped-up!!ped! GBB,!<)!!ped-up! | %14
!ped!!>(! _AcB,!ped-up!!ped! GBB,!ped-up!!ped! CEB,!>)!!ped-up!!pp!!ped! DFB,!ped-up! | %15
!ped! EGB,!ped-up!!ped! EGB,!ped-up!!ped! CEB,!ped-up!!ped! DFB,!ped-up! | %16
!ped! EGB,!ped-up!!ped! CEB,!ped-up!!ped! DFB,!ped-up!!ped! DFB,!ped-up! | %17
!ped! GBB, GBB,!ped-up!!ped! ^F=AB,!ped-up!!ped! GBB,!ped-up! | %18
!ped!!<(! _AcB,!ped-up!!ped! GBB,!ped-up!!ped! CEB,!<)!!ped-up!!p!!ped! DFB,!ped-up! | %19
!ped!!>(! EGB, EGB,!ped-up!!ped! C=AB,!ped-up!!ped! D_AB,!>)!!ped-up! | %20
!pp!!ped! EGB, GBB, EGB,!ped-up!!ped! E_GB,!ped-up! | %21
!ped!!<(! DFB,!ped-up!!ped! _DFB,!ped-up!!ped! C=EB,!ped-up!!ped! _DFB,!ped-up! | %22
!ped! =D^FB,!ped-up!!ped! EGB,!ped-up!!ped! =EG!<)!!p!B,!ped-up!!ped!!>(! =FAB,!ped-up!!>)! | %23
!pp!!ped! _EGB, GBB,!ped-up!!ped! FAB,!ped-up!!ped! CEB,!ped-up! | %24
!ped! DFB,!ped-up!!ped! CEB,!ped-up!!ped! EFB,!ped-up!!ped! DFB,!ped-up! | %25
!ped!!<(! DFB,!ped-up!!ped! DFB,!ped-up!!ped! ^C=EB,!ped-up!!ped! DFB,!ped-up! | %26
!ped! =EGB,!ped-up!!ped! F!<)!!p!AB,!>(! FAB, FAB,!ped-up!!>)! | %27
!pp!!ped! _EGB, GBB,!ped-up!!ped! FAB,!ped-up!!ped! CEB,!ped-up! | %28
!ped! DFB,!ped-up!!ped! AcB, AcB,!ped-up!!ped! ^F=AB,!ped-up! | %29
!ped! GBB,!ped-up!!ped! _AcB,!ped-up!!ped! GBB,!ped-up!!ped! FAB,!ped-up! | %30
!ped! GBB, GBB,!ped-up!!ped! ^F=AB,!ped-up!!ped! GBB,!ped-up! | %31
!ped!!>(! _AcB,!ped-up!!ped! GBB,!ped-up!!ped! CEB,!>)!!ped-up!!pp!!ped! DFB,!ped-up! | %32
!ped! EGB,!ped-up!!ped! EGB,!ped-up!!ped! CEB,!ped-up!!ped! DFB,!ped-up! | %33
!ped! EGB,!ped-up!!ped! CEB,!ped-up!!ped! DFB,!ped-up!!ped! DFB,!ped-up! | %34
!ped! GBB, GBB,!ped-up!!ped!!<(! ^F=AB,!ped-up!!ped! GBB,!ped-up! | %35
[K:bass]!ped! C,C=E!ped-up!!ped! [G,B,]CE!ped-up!!ped! [F,=A,]C_E!ped-up!!ped! [B,D]F_A!<)!!ped-up! | %36
!p!!ped! EGE!ped-up!!ped! CEG!ped-up!!ped!!>(! [_A,C]EF!ped-up!!ped! CDA!ped-up! | %37
!ped! E,EG B,EG!>)!!pp! E,3!ped-up! z z2 | %38
!mp!!ped! !>!G,,2 E, G,CE!ped-up!!ped! !>!A,3!ped-up!!ped! !>!G,3!ped-up! | %39
!ped! !>!^F,3!ped-up!!ped! !>!G,3!ped-up!!ped! !>!E,3!ped-up!!ped! !>!D,3!ped-up! | %40
!ped! !>!C, G,C!ped-up!!ped!!>(! A,CE!ped-up!!ped! [F,A,]CD!ped-up!!ped! G,=B,D!>)!!ped-up! | %41
!pp!!ped! C,CE G,CE!ped-up! C,2 z z2 z | %42
!mp!!ped! F,,2 D, F,B,D!ped-up!!ped! G,3!ped-up!!ped! F,3!ped-up! | %43
!ped!!>(! =E,3!ped-up!!ped! F,3!>)!!ped-up!!pp!!ped! _D3!ped-up!!ped! =C3!ped-up! | %44
!ped! B,3!ped-up!!ped! G,3!ped-up!!ped! E,3!ped-up!!ped! [F,E]3!ped-up! | %45
!ped! E,B,B,, F,DB,, D,B,B,, F,DB,,!ped-up! | %46
!ped! E,B,B,, _G,EB,,!ped-up!!ped! E,B,B,,!ped-up!!ped! G,EB,,!ped-up! | %47
!ped! D,B,B,,!ped-up!!ped! F,DB,, D,B,B,, F,DB,,!ped-up! | %48
!ped!!<(! _C,=A,B,, E,A,B,,!ped-up!!ped! C,A,B,,!ped-up!!ped! E,A,B,,!<)!!ped-up! | %49
!p!!ped! D,B,B,,!>(! F,DB,, D,B,B,, F,DB,,!ped-up!!>)! | %50
!pp!!ped! _C,6!ped-up!!ped!!<(! B,,6!ped!!ped-up!!<)! | %51
!p!!ped!!>(! A,,6!ped-up!!ped!!>)!!ped-up!!pp!!ped! B,,6!ped-up! | %52
!ped!!<(! _C,6!ped-up!!ped! B,,6!ped!!ped-up!!<)! | %53
!p!!ped!!>(! =A,,6!ped-up!!ped!!>)!!ped-up!!pp!!ped! A,,6!ped-up! | %54
!ped!!<(! _A,DF B,DF!ped-up!!ped! A,DF!ped-up!!ped! B,DF!<)!!ped-up! | %55
!p!!ped! G,EG!>(! B,EG!ped-up!!ped! CEG!ped-up!!ped! [=A,C]EF!>)!!ped-up! | %56
!p!!ped! B,EG!ped-up!!ped! CEG!ped-up!!ped!!>(! [_A,C]EF!ped-up!!ped! B,DA!ped-up! | %57
!ped! E,EG B,EG!>)!!pp! E,3!ped-up! z z2 | %58
!pp!!ped! [G,,G,]3 EGG,!ped-up!!ped! D^FG,!ped-up!!ped! EGG,!ped-up! | %59
!ped! =FAG,!ped-up!!ped! EGG,!ped-up!!ped! =A,CG,!ped-up!!ped! =B,DG,!ped-up! | %60
!ped! CEG,!ped-up!!ped! _A,CE!ped-up!!ped! F,A,D!ped-up!!ped! G,DF!ped-up! | %61
!ped! C,EC G,EC!ped-up! C,6 | [F,,F,]6[K:treble]!ped! G3!ped-up!!ped! ^F3!ped-up! | %63
!ped!{/=A} G3!ped-up!!ped! =F z z!ped-up! z2 E D2 C | %64
[K:bass]!ped! DF_D!ped-up!!ped! B,G,=E!ped-up!!ped! _G,B,_E-!ped-up!!ped! [F,=A,E]3!ped-up! | %65
!ped! D,B,B,,F,DB,, D,B,B,,F,DB,,!ped-up! | %66
!pp!!ped! E,B,B,,_G,EB,,!ped-up!!ped! E,B,B,,!ped-up!!ped!G,EB,,!ped-up! | %67
!ped! D,B,B,,!ped-up!!ped!F,DB,, D,B,B,,!p!F,DB,,!ped-up! | %68
!ped! E,B,B,,_G,EB,,!ped-up!!ped!!>(! E,B,B,,!ped-up!!ped!G,EB,,!>)!!ped-up! | %69
!pp!!ped! D,B,B,,F,DB,, D,B,B,,F,DB,,!ped-up! |!ped! !>!_C,6!ped-up!!ped! !>!B,,6!ped-up! | %71
!pp!!ped! !>!A,,6!ped-up!!ped!!ped-up!!ped! !>!B,,6!ped-up!!ped!!ped-up! | %72
!ped! !>!_C,6!ped-up!!ped!!ped-up!!ped! !>!B,,6!ped!!ped-up! | %73
!ped! =A,,E,=C!ped-up!!ped!E,CE, A,,E,CE,CE,!ped-up! | %74
!ped!!<(! _A,,D,B,B,,D,B,!ped-up!!ped! A,,D,B,!ped-up!!ped!B,,D,B,!<)!!ped-up! | %75
!pp!!ped! G,,E,B,!ped-up!!ped!B,,E,B,!ped-up!!pp!!ped! C,3!ped-up!!ped! _C,3!ped-up! | %76
!ped! B,,3!ped-up!!ped! =C,3!ped-up!!ped! A,,3!ped-up!!ped! B,,3!ped-up! | %77
!ped! [E,G,]EG B,EG!ped-up!!ped! G,EG!ped-up!!ped! B,EG!ped-up! | %78
!ped! A,DF B,DF!ped-up!!ped! A,DF!ped-up!!ped! B,DF!ped-up! | %79
!ped! G,EG B,EG!ped-up!!ped! A,EF CEF!ped-up! | %80
!ped! B,,EB, G,EB,!ped-up!!ped! F,DB, A,FB,!ped-up! | %81
!ped! G,EE, B,GE, G,EE,!ped-up!!ped! =B,GE,!ped-up! | %82
[K:bass]!ped! A,EE, CAE, A,EE,!ped-up!!ped! CAE,!ped-up! | %83
!ped! G,EE, B,GE,!ped-up!!ped! G,EE,!ped-up!!ped! B,GE,!ped-up! | %84
!ped! F,DE,!ped-up!!ped! A,FE,!ped-up!!ped! F,DE,!ped-up!!ped! A,FE,!ped-up! | %85
!ped! G,EE,!ped-up!!ped! B,GE, G,EE,!ped-up!!ped! =B,GE,!ped-up! | %86
!ped! A,EE, CAE,!ped-up!!ped! A,EE,!ped-up!!ped! CAE,!ped-up! | %87
!ped! G,EE, B,GE,!ped-up!!ped! A,EE,!ped-up!!ped! CAE,!ped-up! | %88
!ped! G,EE, B,GE,!ped-up!!ped! A,EE, CAE,!ped-up! | %89
!ped! G,EE, B,GE, G,EE,!ped-up!!ped! ^F,^D=B,,!ped-up! | %90
!ped! =E,=B,=B,, ^G,=EB,,!ped-up!!ped! E,B,B,,!ped-up!!ped! G,EB,,!ped-up! | %91
!ped! ^D,=B,=B,, ^F,^DB,,!ped-up!!ped! D,B,B,, _G,_E_C,!ped-up! | %92
!ped! _E,!>(!_C_C, _G,_EC,!ped-up!!ped! E,CC, =F,EC,!>)!!ped-up! | %93
!ppp!!ped! D,B,B,, F,DB,, D,B,B,, F,DB,,!ped-up! | %94
!pp!!ped! _A,,D,B, B,,D,B,!ped-up!!ped! A,,D,B,!ped-up!!ped! B,,D,B,!ped-up! | %95
!ped! G,,E,B,!ped-up!!ped! B,,E,B,!ped-up!!ped! G,,E,B,!ped-up!!ped! B,,E,B,!ped-up! | %96
!ped! A,,D,B, B,,D,B,!ped-up!!ped! A,,D,B,!ped-up!!ped! B,,D,B,!ped-up! | %97
!ped! G,,E,B,!ped-up!!ped! B,,E,B,!ped-up!!ped! G,,E,B,!ped-up!!ped! B,,E,B,!ped-up! | %98
!ped! A,,D,B, B,,D,B,!ped-up!!ped! A,,D,B,!ped-up!!ped! B,,D,B,!ped-up! | %99
!ped! G,,E,B,!ped-up!!ped! B,,E,B,!ped-up!!ped! C,E,G,!ped-up!!ped! =A,,E,C!ped-up! | %100
!ped! B,,E,B,!ped-up!!ped! C,E,G,!ped-up!!ped! A,,C,F, [B,,D,A,] z2!ped-up! | %101
!ped! [E,,E,]3[K:treble] ^F=AB, GBB, FAB,!ped-up! | %102
!ped! GBB,!ped-up!!ped! ^C=EB,!ped-up!!ped! DFB, FAB,!ped-up! | %103
!ped! _EGB,!ped-up!!ped! ^F=AB,!ped-up!!ped! GBB,!ped-up!!ped! ^F=AB,!ped-up! | %104
!ped! GBB,!ped-up!!ped! ^C=EB,!ped-up!!ped! D=FB, F_AB,!ped-up! | %105
!ped! _EGB,!ped-up!!ped! ^C=EB,!ped-up!!ped! DFB, FAB,!ped-up! | %106
!ped! _EGB,!ped-up!!ped! DAB,!ped-up!!ped! =EAB,!ped-up!!ped! FAB,!ped-up! | %107
!ped! _EGB,!ped-up!!ped! DAB,!ped-up!!ped! =EAB,!ped-up!!ped! FAB,!ped-up! | %108
!ped! [_EG]3!ped-up!!ped! DFA!ped-up!!ped! DFA!ped-up!!ped! DFA!ped-up! | %109
!ped! DFA!ped-up!!ped!!<(! DFA!ped-up!!ped! DFA!ped-up!!ped! DF!<)!!pp!A!ped-up! | %110
!ped!!<(! DFA!ped-up!!ped! DFA!ped-up!!ped! DFA!<)!!ped-up!!p!!ped! DFA!ped-up! | %111
!ped!!>(! DFA!ped-up!!ped! DFA!ped-up!!ped! DFA!ped-up!!ped! DFA!>)!!ped-up! | %112
[K:bass]!pp!!ped! G,EE, B,GE,!ped-up!!ped! F,DE, A,FE,!ped-up! | %113
!ped! G,EE, B,GE,!ped-up!!ped! F,DE, A,FE,!ped-up! | %114
!pp!!ped! G,"_dim."EE, B,GE,!ped-up!!ped! F,DE, A,FE,!ped-up! | %115
!ped! G,EE, B,GE,!ped-up!!ped! F,DE, A,FE,!ped-up! |!pp!!ped! G,!>(!EE, B,GE, G,EE, B,GE,!>)! | %117
!ppp! G,!>(!EE, B,GE,-!>)!!ppp! [E,G,E]3 z2!ped-up! z | z12 | z12 | z12 | z12 | z12 | z12 | z12 | %125
 z12 | z12 | z12 |] %128
V:3
 x12 | x12 | x12 | x12 | x12 | x12 | x12 | x12 | x12 | x12 | x12 | x12 | x12 | x12 | x12 | x12 | %16
 x12 | x12 | x12 |!8va(! x12!8va)! | x12 | x12 | x12 | x12 | B3 =A3 c3 B3 | x12 | x12 | x12 | x12 | %29
 x12 | x12 | x12 | x12 | x12 | x12 | x12 | x12 | x12 | x12 | x12 | x12 | x12 | x12 | x12 | %44
 B6 B3 =A3 | x12 | x12 | x12 | x12 | x12 | x12 | x12 | x12 | x12 | x12 | x12 | x12 | x12 | x12 | %59
 x12 | x12 | x12 | f!pp!FF FFF e!pp!FF d!pp!=FF | e!pp!FF d!pp!FF x2 x4 | x12 | x12 | x12 | x12 | %68
 x12 | x12 | x12 | x12 | x12 | x12 | x12 | x12 | x12 | x12 | x12 | x12 | x12 | x12 | x12 | x12 | %84
 x12 | x12 | x12 | x12 | x12 | x12 | x12 | x12 | x12 | x12 | x12 | x12 | x12 | x12 | x12 | x12 | %100
 x12 | x9!8va(! x3 | x12 | x12!8va)! | x12 | x12 | x12 | x12 | x12 | x12 | x12 | x12 | x12 | x12 | %114
 x12 |!8va(! x12 | x3!8va)! x9 | x12 | x12 | x12 | x12 | x12 | x12 | x12 | x12 | x12 | x12 | x12 |] %128
V:4
 x12 | x12 | x12 | x12 | x12 | x12 | x12 | x12 | x12 | x12 | x12 | x12 | x12 | x12 | x12 | x12 | %16
 x12 | x12 | x12 | x12 | x12 | x12 | x12 | x12 | x12 | x12 | x12 | x12 | x12 | x12 | x12 | x12 | %32
 x12 | x12 | x12 |[K:bass] x12 | x12 | x12 | x6 A,CE G,CE | ^F,CE G,CE E,CE D,=B,G | x12 | x12 | %42
 x6 G,B,^C F,B,D | =E,B,^C F,B,D _D=EF =C_EF | B,=DF G,DG E,G,C x x2 | x12 | x12 | x12 | x12 | %49
 x12 | _C,E,_A,E,A,E, B,,E,B,E,B,E, | A,,E,_CE,CE, B,,E,B,E,B,E, | _C,E,_A,E,A,E, B,,E,B,E,B,E, | %53
 =A,,E,=CE,CE, A,,E,CE,CE, | x12 | x12 | x12 | x12 | x12 | x12 | x12 | x12 | x6[K:treble] x6 | %63
 x12 |[K:bass] x12 | x12 | x12 | x12 | x12 | x12 | _C,E,A,E,A,E, B,,E,!fermata!B,E,B,E, | %71
 A,,E,_CE,CE, B,,E,B,E,B,E, | _C,E,A,E,A,E, B,,E,B,E,B,E, | x12 | x12 | x6 C,E,G, _C,E,=A, | %76
 B,,E,B, C,E,G, A,,C,F, B,,D,A, | x12 | x12 | x12 | x12 | x12 |[K:bass] x12 | x12 | x12 | x12 | %86
 x12 | x12 | x12 | x12 | x12 | x12 | x12 | x12 | x12 | x12 | x12 | x12 | x12 | x12 | x12 | %101
 x3[K:treble] x9 | x12 | x12 | x12 | x12 | x12 | x12 | x3 B,3 B,3 B,3 | B,3 B,3 B,3 B,3 | %110
 B,3 B,3 B,3 B,3 | B,3 B,3 B,3 B,3 |[K:bass] x12 | x12 | x12 | x12 | x12 | x12 | x12 | x12 | x12 | %121
 x12 | x12 | x12 | x12 | x12 | x12 | x12 |] %128

